svg/koa.svg

<svg viewBox="0 0 20 20" xmlns="http://www.w3.org/2000/svg">
<rect width="100%" height="100%" fill="white"/>
<path d="M8.81818 12.1067C9.18182 11.5674 9.72727 11.0281 10.0909 10.6685C10.6364 9.94944 11.3636 9.23034 11.9091 8.51124C12.4545 7.97191 12.8182 7.43258 13.3636 7.07303C13.3636 6.89326 13.5455 6.89326 13.7273 6.89326C13.7273 6.89326 13.7273 7.07303 13.5455 7.07303C12.6364 8.15169 11.5455 9.23034 10.6364 10.309C10.2727 10.6685 10.2727 10.6685 10.6364 11.2079C12.0909 13.1854 13.3636 15.1629 14.8182 17.1404C14.8182 17.1404 15 17.3202 15 17.5H14.8182H13.9091C13.7273 17.5 13.7273 17.5 13.5455 17.5L13.3636 17.3202C12.8182 16.6011 12.2727 15.7022 11.7273 14.9831L9.72727 12.1067C9.72727 11.927 9.54545 11.927 9.54545 11.7472C9.18182 12.1067 9 12.2865 9 12.6461C9 14.0843 9 15.5225 9 16.9607V17.1404C9 17.3202 9 17.5 8.63636 17.5H7.36364C7.18182 17.5 7 17.5 7 17.3202V2.03933C7 1.5 7 1.5 7.54545 1.5H8.09091C8.45454 1.5 8.45455 1.5 8.45455 1.85955V12.1067H8.81818Z" fill="black"/>
</svg>

<svg xmlns="http://www.w3.org/2000/svg" viewBox="0 0 20 20">
  <rect width="100%" height="100%" fill="#fff"/>
  <path d="M8.82 12.1c.36-.53.9-1.07 1.27-1.43.55-.72 1.27-1.44 1.82-2.16.54-.54.9-1.08 1.45-1.44 0-.18.19-.18.37-.18 0 0 0 .18-.18.18-.91 1.08-2 2.16-2.91 3.24-.37.36-.37.36 0 .9 1.45 1.98 2.72 3.95 4.18 5.93 0 0 .18.18.18.36H13.55l-.19-.18c-.54-.72-1.09-1.62-1.63-2.34l-2-2.87c0-.18-.18-.18-.18-.36-.37.36-.55.54-.55.9V17.14c0 .18 0 .36-.36.36H7.36c-.18 0-.36 0-.36-.18V2.04c0-.54 0-.54.55-.54h.54c.36 0 .36 0 .36.36v10.25h.37Z"/>
</svg>
